li/social-soundcloud.svg

<svg class="social-soundcloud" role="img" focusable="false" aria-hidden="true" xmlns="http://www.w3.org/2000/svg" viewBox="0 0 14 14" height="1em" width="1em">
  <path d="m 13,8.12311 c 0,0.8037 -0.651495,1.4552 -1.455204,1.4552 l -4.04767,0 0,-5.00094 c 0.15469,-0.0564 0.316165,-0.0985 0.483058,-0.12449 0.130544,-0.0204 0.264263,-0.0312 0.400573,-0.0312 1.354835,0 2.465505,1.04502 2.570185,2.37297 C 11.13234,6.71345 11.333194,6.66789 11.544796,6.66789 12.348505,6.66789 13,7.31942 13,8.12313 Z m -7.016417,-2.55717 0,4.01234 0.483058,0 0,-4.30555 C 6.359136,5.3918 6.262495,5.52091 6.178466,5.65856 6.115436,5.62436 6.05034,5.59356 5.983583,5.56596 Z m 0.748747,4.01234 0.483058,0 0,-4.87849 C 7.042175,4.78769 6.880262,4.89461 6.73233,5.01779 l 0,4.56049 z m -3.067456,-3.50974 0,3.50974 0.483058,0 0,-3.89315 C 3.968282,5.78864 3.805641,5.91816 3.664874,6.06854 Z m -1.449175,0.72816 0,2.76952 c 0.05933,0.008 0.11968,0.0121 0.181136,0.0121 l 0.253631,0 0,-2.77057 c -0.08225,-0.0152 -0.166981,-0.0231 -0.253631,-0.0231 -0.06143,0 -0.121806,0.004 -0.181136,0.0121 z M 1.57565,9.31116 c 0.109806,0.0799 0.231612,0.14415 0.362301,0.18962 l 0,-2.63861 C 1.807262,6.90767 1.685427,6.97186 1.57565,7.05179 l 0,2.25937 z m 1.340476,-2.4263 0,2.69345 0.483058,0 0,-3.15807 C 3.290515,6.60106 3.208087,6.79949 3.158078,7.01051 3.082208,6.96111 3.001204,6.91901 2.916126,6.88486 Z m 1.521641,2.69342 0.483058,0 0,-4.15348 C 4.75268,5.4462 4.590942,5.4879 4.437767,5.54689 l 0,4.03139 z m 0.772893,0 0.483058,0 0,-4.10808 C 5.538854,5.4315 5.377087,5.4102 5.21066,5.4083 l 0,4.17 z m -3.872534,-0.48617 0,-1.8213 C 1.127573,7.51536 1,7.83342 1,8.18142 1,8.5295 1.127573,8.84753 1.338126,9.09211 Z"/>
</svg>

<svg class="social-soundcloud" aria-hidden="true" xmlns="http://www.w3.org/2000/svg" viewBox="0 0 14 14" height="1em" width="1em">
  <path d="M13 8.123c0 .804-.651 1.455-1.455 1.455H7.497v-5a2.559 2.559 0 0 1 .884-.156 2.579 2.579 0 0 1 2.57 2.373A1.455 1.455 0 0 1 13 8.123ZM5.984 5.566v4.012h.483V5.273a2.539 2.539 0 0 0-.289.386 2.054 2.054 0 0 0-.194-.093Zm.748 4.012h.483V4.7a2.579 2.579 0 0 0-.483.318v4.56zm-3.067-3.51v3.51h.483V5.685a2.09 2.09 0 0 0-.483.384Zm-1.45.729v2.77c.06.007.12.011.182.011h.253v-2.77a1.394 1.394 0 0 0-.434-.011zm-.64 2.514c.11.08.232.144.363.19V6.862c-.13.046-.253.11-.362.19v2.26zm1.341-2.426v2.693H3.4V6.42c-.108.181-.19.38-.24.59a1.397 1.397 0 0 0-.243-.125Zm1.522 2.693h.483V5.425a2.07 2.07 0 0 0-.483.122v4.031zm.773 0h.483V5.47a2.089 2.089 0 0 0-.483-.062v4.17zm-3.873-.486V7.271a1.39 1.39 0 0 0 0 1.821Z"/>
</svg>
